icons/Agreement_handshakeicons.svg

<svg width="16" height="16" viewBox="0 0 16 16" fill="currentColor" xmlns="http://www.w3.org/2000/svg">
<path d="M6.711 12.8774C6.38363 12.8774 6.13811 12.7544 5.89258 12.5495C5.68798 12.3446 5.56522 12.0577 5.56522 11.7298C5.56522 11.4019 5.68798 11.156 5.89258 10.91L7.16112 9.63944C7.20205 9.59846 7.32481 9.59846 7.36573 9.63944C7.40665 9.68043 7.40665 9.80339 7.36573 9.84438L6.13811 11.156C5.97442 11.3199 5.89258 11.5248 5.89258 11.7298C5.89258 11.9347 5.97442 12.1806 6.13811 12.3036C6.30179 12.4675 6.50639 12.5495 6.711 12.5495C6.9156 12.5495 7.16112 12.4675 7.28389 12.3036C7.32481 12.2626 7.44757 12.2626 7.48849 12.3036C7.52941 12.3446 7.52941 12.4675 7.48849 12.5085C7.32481 12.7544 6.99744 12.8774 6.711 12.8774Z" fill="#3D3D3D"/>
<path d="M5.07417 13.0414H4.46036C4.17391 13.0414 3.88747 12.9184 3.68287 12.7135L3.23274 12.2626C3.1509 12.1807 3.10998 12.1397 2.98721 12.0987C2.86445 12.0577 2.78261 12.0167 2.65985 12.0167H1.10486C0.818414 12.0167 0.531969 11.8937 0.327366 11.6888C0.122762 11.5249 0 11.238 0 10.9101V7.30323C0 7.01633 0.122762 6.72942 0.327366 6.52449C0.491049 6.31955 0.777494 6.19659 1.10486 6.19659H3.02813C3.23274 6.19659 3.43734 6.11462 3.5601 5.95067L4.50128 5.00798C4.58312 4.926 4.70588 4.80304 4.82865 4.76206C4.95141 4.72107 5.11509 4.68008 5.23785 4.68008H9.00256C9.16624 4.68008 9.28901 4.72107 9.41177 4.76206C9.53453 4.80304 9.65729 4.926 9.78005 5.00798L11.7033 6.93435C11.7852 7.01633 11.9079 7.18027 11.9489 7.30323C12.0307 7.46718 12.0307 7.63113 12.0307 7.75409C12.0307 7.91804 11.9898 8.041 11.9489 8.16396V8.20494L11.7033 8.57382C11.4578 8.77876 11.1714 8.86073 10.8849 8.86073C10.5985 8.86073 10.312 8.73777 10.1074 8.53284L8.8798 7.30323C8.83888 7.26225 8.83888 7.13929 8.8798 7.0983C8.92072 7.05731 9.04348 7.05731 9.0844 7.0983L10.312 8.3279C10.4757 8.49185 10.6803 8.57382 10.844 8.57382C11.0486 8.57382 11.2532 8.49185 11.4578 8.36889C11.4987 8.3279 11.5806 8.20494 11.6624 8.08198C11.7033 7.95902 11.7442 7.87705 11.7442 7.79507C11.7442 7.67211 11.7443 7.59014 11.7033 7.50817V7.46718C11.6624 7.38521 11.6215 7.26225 11.5396 7.18027L9.61637 5.2539C9.53453 5.17193 9.45269 5.13094 9.37085 5.08995C9.28901 5.04896 9.16624 5.00798 9.0844 5.00798H5.31969C5.23785 5.00798 5.11509 5.04896 4.99233 5.08995C4.91049 5.13094 4.82865 5.17193 4.7468 5.2539L3.80563 6.19659C3.60102 6.40153 3.31458 6.52449 3.02813 6.52449H1.10486C0.941177 6.52449 0.736573 6.56547 0.57289 6.77041C0.409207 6.93435 0.327366 7.13929 0.327366 7.34422V10.9511C0.327366 11.115 0.368286 11.3199 0.57289 11.4839C0.736573 11.6478 0.941177 11.7298 1.14578 11.7298H2.74169C2.90537 11.7298 3.02813 11.7708 3.1509 11.8118C3.31458 11.8528 3.39642 11.9757 3.47826 12.0577L3.92839 12.5085C4.09207 12.6725 4.29668 12.7545 4.46036 12.7545H5.07417C5.15601 12.7545 5.23785 12.8364 5.23785 12.9184C5.23785 13.0004 5.15601 13.0414 5.07417 13.0414V13.0414Z" fill="#3D3D3D"/>
<path d="M5.36059 11.5249C5.03323 11.5249 4.7877 11.4019 4.54218 11.197C4.33758 10.992 4.21481 10.7051 4.21481 10.3772C4.21481 10.0493 4.33758 9.80343 4.54218 9.55751L7.07926 7.01633C7.12018 6.97534 7.16111 6.97534 7.20203 6.97534H8.96162C9.04346 6.97534 9.1253 7.05732 9.1253 7.13929C9.1253 7.22126 9.04346 7.30324 8.96162 7.30324H7.28387L4.7877 9.80343C4.62402 9.96737 4.54218 10.1723 4.54218 10.3772C4.54218 10.5822 4.62402 10.8281 4.7877 10.9511C4.95139 11.115 5.15599 11.197 5.36059 11.197C5.5652 11.197 5.72888 11.115 5.85164 10.9511C5.89256 10.9101 6.01533 10.9101 6.05625 10.9511C6.09717 10.992 6.09717 11.115 6.05625 11.156C5.93348 11.3609 5.72888 11.5249 5.36059 11.5249V11.5249ZM8.10228 14.271C7.9386 14.271 7.81584 14.23 7.69308 14.189C7.57031 14.148 7.40663 14.066 7.28387 13.9431C7.24295 13.9021 7.20203 13.8611 7.20203 13.8201C7.16111 13.7382 7.07926 13.6562 7.03834 13.5332C6.99742 13.4103 6.9565 13.2463 6.9565 13.1233C6.9565 12.9594 6.99742 12.8364 7.03834 12.7135C7.07926 12.5905 7.16111 12.4266 7.28387 12.3446L8.55241 11.074C8.59333 11.033 8.71609 11.033 8.75701 11.074C8.79793 11.115 8.79793 11.238 8.75701 11.2789L7.48847 12.5495C7.40663 12.6315 7.36571 12.7135 7.32479 12.8364C7.28387 12.9594 7.24295 13.0414 7.24295 13.1643C7.24295 13.2463 7.28387 13.3693 7.32479 13.4922C7.36571 13.5742 7.36571 13.6152 7.44755 13.6562C7.48847 13.6972 7.48847 13.7382 7.52939 13.7791C7.57031 13.8201 7.69307 13.9021 7.77492 13.9431C8.02044 14.0251 8.18412 14.0251 8.42965 13.9431C8.51149 13.9021 8.55241 13.9021 8.63425 13.8201C8.67517 13.7791 8.71609 13.7791 8.75701 13.7382L9.98464 12.4676C10.0256 12.4266 10.1483 12.4266 10.1892 12.4676C10.2302 12.5085 10.2302 12.6315 10.1892 12.6725L8.9207 13.9431C8.87978 13.9841 8.83886 14.0251 8.79793 14.0251C8.71609 14.066 8.63425 14.148 8.51149 14.189C8.38873 14.23 8.26597 14.271 8.10228 14.271V14.271Z" fill="#3D3D3D"/>
<path d="M10.1074 14.9677C9.82095 14.9677 9.53451 14.8858 9.3299 14.6808C9.20714 14.5579 9.08438 14.4349 9.04346 14.271C9.00254 14.148 8.96162 13.9841 8.96162 13.8611C8.96162 13.6972 9.00254 13.5742 9.04346 13.4512C9.08438 13.3283 9.20714 13.2053 9.28898 13.1233C9.3299 13.1233 9.3299 13.0824 9.3299 13.0824C9.37082 13.0414 9.49358 13.0414 9.53451 13.0824C9.57543 13.1233 9.57543 13.2463 9.53451 13.2873L9.45266 13.3693C9.37082 13.4102 9.28898 13.5332 9.28898 13.5742C9.24806 13.6972 9.20714 13.7791 9.20714 13.9021C9.20714 13.9841 9.24806 14.107 9.28898 14.23C9.3299 14.312 9.37082 14.3939 9.49358 14.5169C9.65727 14.6398 9.86187 14.7218 10.0665 14.7218C10.2711 14.7218 10.4757 14.6398 10.5984 14.4759L13.1764 11.8937C13.2583 11.8118 13.422 11.6888 13.5038 11.6478C13.6675 11.6068 13.7903 11.5658 13.9539 11.5658H14.936C15.0997 11.5658 15.3043 11.5249 15.468 11.3199C15.6317 11.156 15.7135 10.951 15.7135 10.7461V7.3852C15.7135 7.30322 15.6726 7.18026 15.6317 7.0573C15.5908 6.97533 15.5499 6.89336 15.468 6.81138C15.3862 6.72941 15.3043 6.68842 15.2225 6.64744C15.1406 6.60645 15.0179 6.56546 14.936 6.56546H12.4399C12.358 6.56546 12.2762 6.48349 12.2762 6.40152C12.2762 6.31954 12.358 6.23757 12.4399 6.23757H14.936C15.0997 6.23757 15.2225 6.27856 15.3452 6.31954C15.468 6.36053 15.5908 6.48349 15.6726 6.56546C15.7545 6.64744 15.8772 6.7704 15.9181 6.89336C15.9591 7.01632 16 7.18026 16 7.30322V10.6641C16 10.951 15.8772 11.238 15.6726 11.4429C15.5089 11.6478 15.2225 11.7708 14.8951 11.7708H13.9949C13.913 11.7708 13.7903 11.8118 13.6675 11.8528C13.6266 11.8937 13.5038 11.9347 13.422 12.0167L10.844 14.5989C10.6803 14.8448 10.3938 14.9677 10.1074 14.9677V14.9677ZM8.06136 3.81935C7.97952 3.81935 7.89768 3.73738 7.89768 3.65541V1.1962C7.89768 1.11423 7.97952 1.03226 8.06136 1.03226C8.1432 1.03226 8.22504 1.11423 8.22504 1.1962V3.65541C8.22504 3.73738 8.1432 3.81935 8.06136 3.81935ZM10.1892 3.81935H10.1074C10.0256 3.77837 9.98463 3.69639 10.0256 3.61442L10.8849 1.89298C10.9258 1.811 11.0077 1.77002 11.0895 1.811C11.1713 1.85199 11.2123 1.93396 11.1713 2.01594L10.312 3.73738C10.312 3.77837 10.2302 3.81935 10.1892 3.81935ZM5.89256 3.81935C5.85164 3.81935 5.7698 3.77837 5.7698 3.73738L4.91046 2.01594C4.86954 1.93396 4.91046 1.85199 4.9923 1.811C5.07415 1.77002 5.15599 1.811 5.19691 1.89298L6.05624 3.61442C6.09716 3.69639 6.05624 3.77837 5.9744 3.81935H5.89256V3.81935Z" fill="#3D3D3D"/>
</svg>

<svg xmlns="http://www.w3.org/2000/svg" width="16" height="16" fill="currentColor" class="si si-Agreement_handshakeicons" viewBox="0 0 16 16">
  <path d="M6.711 12.877c-.327 0-.573-.123-.818-.328a1.15 1.15 0 0 1-.328-.82c0-.327.123-.573.328-.819L7.16 9.64c.041-.042.164-.042.205 0 .04.04.04.163 0 .204l-1.228 1.312a.8.8 0 0 0-.245.574c0 .205.081.45.245.574a.8.8 0 0 0 .573.245c.205 0 .45-.082.573-.245.04-.041.164-.041.204 0 .041.04.041.163 0 .204-.163.246-.49.37-.777.37"/>
  <path d="M5.074 13.041H4.46c-.286 0-.573-.123-.777-.328l-.45-.45c-.082-.082-.123-.123-.246-.164s-.204-.082-.327-.082H1.105c-.287 0-.573-.123-.778-.328C.123 11.525 0 11.238 0 10.91V7.303c0-.287.123-.574.327-.779.164-.204.45-.327.778-.327h1.923a.66.66 0 0 0 .532-.246l.941-.943c.082-.082.205-.205.328-.246.122-.04.286-.082.409-.082h3.765c.163 0 .286.041.409.082s.245.164.368.246l1.923 1.926c.082.082.205.246.246.37.082.163.082.327.082.45 0 .164-.041.287-.082.41v.04l-.246.37a1.25 1.25 0 0 1-.818.287c-.287 0-.573-.123-.778-.328L8.88 7.303c-.041-.04-.041-.164 0-.205.04-.04.163-.04.204 0l1.228 1.23a.8.8 0 0 0 .532.246c.205 0 .41-.082.614-.205.04-.041.123-.164.204-.287.041-.123.082-.205.082-.287 0-.123 0-.205-.04-.287v-.04c-.042-.083-.083-.206-.164-.288L9.616 5.254a.9.9 0 0 0-.245-.164.8.8 0 0 0-.287-.082H5.32c-.082 0-.205.041-.328.082a.8.8 0 0 0-.245.164l-.941.943a1.12 1.12 0 0 1-.778.327H1.105a.64.64 0 0 0-.532.246.8.8 0 0 0-.246.574v3.607c0 .164.041.369.246.533a.8.8 0 0 0 .573.246h1.596c.163 0 .286.04.409.082.164.04.245.164.327.246l.45.45a.8.8 0 0 0 .532.247h.614c.082 0 .164.081.164.163s-.082.123-.164.123"/>
  <path d="M5.36 11.525c-.327 0-.572-.123-.818-.328a1.15 1.15 0 0 1-.327-.82c0-.328.123-.574.327-.82l2.537-2.54c.041-.042.082-.042.123-.042h1.76c.081 0 .163.082.163.164s-.082.164-.163.164H7.284l-2.496 2.5a.8.8 0 0 0-.246.574c0 .205.082.451.246.574a.8.8 0 0 0 .573.246.58.58 0 0 0 .49-.246c.042-.04.164-.04.205 0 .041.041.041.164 0 .205-.123.205-.327.369-.695.369m2.742 2.746c-.163 0-.286-.041-.409-.082a1.1 1.1 0 0 1-.41-.246c-.04-.04-.081-.082-.081-.123-.04-.082-.123-.164-.164-.287a1.5 1.5 0 0 1-.082-.41c0-.164.041-.287.082-.41.041-.122.123-.286.246-.368l1.268-1.271c.041-.041.164-.041.205 0s.04.164 0 .205l-1.269 1.27a.66.66 0 0 0-.163.287c-.041.123-.082.205-.082.328 0 .082.04.205.082.328.04.082.04.123.123.164.04.041.04.082.081.123s.164.123.246.164c.245.082.41.082.655 0 .081-.04.122-.04.204-.123.041-.04.082-.04.123-.082l1.228-1.27c.04-.041.163-.041.204 0 .041.04.041.164 0 .204l-1.268 1.271c-.041.041-.082.082-.123.082-.082.041-.164.123-.287.164a1.2 1.2 0 0 1-.409.082"/>
  <path d="M10.107 14.968c-.286 0-.572-.082-.777-.287-.123-.123-.246-.246-.287-.41a1.5 1.5 0 0 1-.081-.41c0-.164.04-.287.081-.41s.164-.246.246-.328c.04 0 .04-.04.04-.04.042-.042.165-.042.206 0 .04.04.04.163 0 .204l-.082.082c-.082.041-.164.164-.164.205-.04.123-.082.205-.082.328 0 .082.041.205.082.328.04.082.082.164.205.287a.98.98 0 0 0 .572.205.66.66 0 0 0 .532-.246l2.578-2.582c.082-.082.246-.205.328-.246.164-.041.286-.082.45-.082h.982a.64.64 0 0 0 .532-.246.8.8 0 0 0 .245-.574v-3.36c0-.083-.04-.206-.081-.329a.9.9 0 0 0-.164-.246c-.082-.082-.164-.123-.245-.164a.8.8 0 0 0-.287-.082H12.44a.176.176 0 0 1-.164-.163c0-.082.082-.164.164-.164h2.496c.164 0 .287.04.41.082.122.04.245.163.327.245s.204.205.245.328.082.287.082.41v3.361c0 .287-.123.574-.327.779-.164.205-.45.328-.778.328h-.9c-.082 0-.205.04-.327.082-.041.04-.164.082-.246.164l-2.578 2.582c-.164.246-.45.369-.737.369M8.061 3.819c-.081 0-.163-.082-.163-.164V1.196c0-.082.082-.164.163-.164.082 0 .164.082.164.164v2.46c0 .081-.082.163-.164.163m2.128 0h-.082c-.081-.04-.122-.123-.081-.205l.859-1.721c.04-.082.123-.123.204-.082.082.041.123.123.082.205l-.859 1.721c0 .041-.082.082-.123.082m-4.296 0c-.041 0-.123-.04-.123-.082l-.86-1.721c-.04-.082 0-.164.082-.205s.164 0 .205.082l.86 1.721c.04.082 0 .164-.083.205z"/>
</svg>
